X:374
T:Lagergrens polska.
R:polska
S:Efter »Florsen» i Burs.
O:Gotland, Burs
M:3/4
L:1/16
K:F
c2|:cAFA BABd d2c2|cAFA BABd c4|c2de fgag fedc|1 cBdc BAGF FEDC:|2 cABG G4 F2
|:g2|gece fefa a2g2|gece fefa g4|g^fga .b2.a2.g2.=f2|f2ef gfed c4|
a2ab c'2c'a f2fb|d'2c'2 c'2b2 b2a2|a2ab c'2c'a f2fb|d'2c'2 c'2b2 b2a2|
e3f gaba g^fga|b2a2 g2f2 f2e2|cAFA BABd d2c2|cAFA BABd c4|
c2de fgag fedc|cABG G4 F2:|

